!!!COM: Palestrina, Giovanni Perluigi da
!!!OPR: Missa In duplicibus minoribus (II)
!!!OMD: Credo
!!!OTL: Confiteor
**kern	**kern	**kern	**kern	**kern
*Ibass	*Itenor	*Itenor	*Icalto	*Icant
!Bassus	!Tenor 2	!Tenor 1	!Altus	!Cantus
*clefF4	*clefGv2	*clefGv2	*clefG2	*clefG2
*k[]	*k[]	*k[]	*k[]	*k[]
*E:phr	*E:phr	*E:phr	*E:phr	*E:phr
*M3/2	*M3/2	*M3/2	*M3/2	*M3/2
=145	=145	=145	=145	=145
1r	2A	1r	1r	1r
.	2A	.	.	.
2r	2B	2r	2r	2r
=146	=146	=146	=146	=146
1r	1c	2A	2e	1r
.	.	2A	2c	.
2r	2B	2B	2d	2r
=147	=147	=147	=147	=147
2A	1A	2c	2e	2a
2F	.	2c	2f	2a
2G	2r	2B	2d	2b
=148	=148	=148	=148	=148
2A	1r	4A	4c	2cc
.	.	4B	4d	.
2A	.	4c	4e	2cc
.	.	4A	4f	.
2G	2r	2d	2g	2b
=149	=149	=149	=149	=149
2A	1r	2.c	1e	2cc
1F	.	.	.	1a
.	.	4B	.	.
.	2r	2A	2d	.
=150	=150	=150	=150	=150
2E	2r	2B	2e	2g
2C	2e	2r	2g	2cc
2G	2d	2r	2g	2b
=151	=151	=151	=151	=151
2E	2e	1r	2g	2b
1A	1c	.	2e	1a
.	.	2r	2f#	.
=152	=152	=152	=152	=152
1.G	1B	2d	[1.g	1.b
.	.	2e	.	.
.	2r	2d	.	.
=153	=153	=153	=153	=153
1r	2d	2B	1.g]	1r
.	2e	2c	.	.
2r	2d	2B	.	2r
=154	=154	=154	=154	=154
2G	2B	2d	2r	1r
2A	2c	2c	2r	.
2G	2d	2B	2d	2r
=155	=155	=155	=155	=155
2E	2c	2G	2e	2g
2F	2A	2r	2d	2a
2G	2d	2r	2B	2g
=156	=156	=156	=156	=156
1A	2c	2r	2c	2e
.	2r	2A	2c	2f
2G	2r	2B	2d	2g
=157	=157	=157	=157	=157
2F	2r	2c	2A	2a
2E	2r	2c	2e	2g
2D	2A	2d	2A	2f
=158	=158	=158	=158	=158
2E	2G	1c	2r	1e
1F	2A	.	1A	.
.	2D	2A	.	2d
=159	=159	=159	=159	=159
2E	2r	2G	2B	[1.e
1AA	2E	1A	2.c	.
.	2c	.	.	.
.	.	.	8B	.
.	.	.	8A	.
=160	=160	=160	=160	=160
2C	2.c	1.E	2G	1.e]
1AA	.	.	2A	.
.	4B	.	.	.
.	2A	.	2c	.
=161	=161	=161	=161	=161
[1.E	[1.G#	[1.E	[1.B	[1.e
=162	=162	=162	=162	=162
1.E]	1.G#]	1.E]	1.B]	1.e]
*-	*-	*-	*-	*-
!!!CDT: 1525/^1526/-1594/2/2
!!!OCY: Italia
!!!AGN: Mass (Paraphrase)
!!!AST: renaissance, vocal
!!!ASW: Gregorian Mass
!!!PWK: Masses, Book Mantuan I
!!!RNB: Cadence finals: A
!!!YOR: Le Opere Complete, v. 18, p. 1
!!!YOO: Rome, Italy: Fratelli Scalera
!!!END: 1992//
!!!EED: John Miller
!!!YEC: Copyright 2000, John Miller
!!!YEN: United States of America
!!!YEM: Rights to all derivative electronic formats reserved.
!!!YEM: Refer to licensing agreement for further details.
!!!YEM: This file must be accompanied by the licensing agreement.
!!!YEM: A copy of the licensing agreement may be found at http://www.music-cog.ohio-state.edu/HumdrumDatabases/Palestrina/license.txt
!!!EMD: converted to Humdrum by Bret Aarden
